Icons/rename_me_table_tennis.svg

<svg viewBox="0 0 48 48" xmlns:xlink="http://www.w3.org/1999/xlink">
 <defs>
  <linearGradient id="0">
   <stop stop-opacity="0"/>
   <stop offset="1"/>
  </linearGradient>
  <linearGradient xlink:href="#0" id="1" gradientUnits="userSpaceOnUse" gradientTransform="translate(4e-7,-48)" y1="47" x2="0" y2="1"/>
  <clipPath id="2">
   <g transform="translate(0,-1004.3622)">
    <rect rx="4" y="1005.36" x="1" height="46" width="46" fill="#1890d0"/>
   </g>
  </clipPath>
  <clipPath id="3">
   <g transform="translate(0,-1004.3622)">
    <rect rx="4" y="1005.36" x="1" height="46" width="46" fill="#1890d0"/>
   </g>
  </clipPath>
 </defs>
 <g>
  <g transform="translate(0,-1004.3622)">
   <path d="m 5,1006.3622 c -2.216,0 -4,1.784 -4,4 l 0,37.25 c 0,2.216 1.784,4 4,4 l 38,0 c 2.216,0 4,-1.784 4,-4 l 0,-37.25 c 0,-2.216 -1.784,-4 -4,-4 l -38,0 z m -4,41.5 0,0.5 c 0,2.216 1.784,4 4,4 l 38,0 c 2.216,0 4,-1.784 4,-4 l 0,-0.5 c 0,2.216 -1.784,4 -4,4 l -38,0 c -2.216,0 -4,-1.784 -4,-4 z" opacity="0.02"/>
   <path d="m 1,1047.6122 0,0.25 c 0,2.216 1.784,4 4,4 l 38,0 c 2.216,0 4,-1.784 4,-4 l 0,-0.25 c 0,2.216 -1.784,4 -4,4 l -38,0 c -2.216,0 -4,-1.784 -4,-4 z" opacity="0.05"/>
   <rect width="46" height="46" x="1" y="1005.61" rx="4" opacity="0.1"/>
  </g>
 </g>
 <g>
  <g transform="translate(0,-1004.3622)">
   <rect rx="4" y="1005.36" x="1" height="46" width="46" fill="#2b69b9"/>
  </g>
 </g>
 <g>
  <rect transform="scale(1,-1)" width="46" height="46" x="1" y="-46.998" rx="4" opacity="0.1" fill="url(#1)"/>
 </g>
 <g>
  <g clip-path="url(#2)">
   <g opacity="0.1">
    <g>
     <path d="M 13.742188 36.945312 C 13.816406 36.914062 13.9375 36.914062 14.011719 36.945312 C 14.085938 36.976562 14.027344 37 13.878906 37 C 13.730469 37 13.671875 36.976562 13.742188 36.945312 Z M 13.046875 36.589844 C 11.988281 36.109375 10.875 34.535156 11.011719 33.707031 C 11.089844 33.214844 11.351562 32.949219 13.234375 31.445312 C 15.253906 29.832031 16.308594 28.8125 16.476562 28.316406 C 16.703125 27.636719 16.621094 26.324219 16.265625 24.96875 C 15.902344 23.585938 15.757812 22.707031 15.890625 22.707031 C 15.9375 22.707031 18.058594 24.796875 20.601562 27.347656 L 25.230469 31.984375 L 24.546875 31.910156 C 24.171875 31.871094 23.445312 31.714844 22.933594 31.5625 C 21.707031 31.195312 20.097656 31.101562 19.425781 31.359375 C 18.886719 31.566406 18.195312 32.296875 16.148438 34.839844 C 15.417969 35.746094 14.6875 36.558594 14.519531 36.644531 C 14.105469 36.859375 13.59375 36.839844 13.046875 36.589844 Z M 21.957031 25.785156 L 16 19.824219 L 16.128906 19.304688 C 16.566406 17.570312 17.550781 15.925781 18.960938 14.570312 C 22.601562 11.078125 27.214844 10.0625 31.0625 11.90625 C 33.171875 12.917969 35.230469 15.082031 36.125 17.234375 C 36.644531 18.488281 36.832031 19.621094 36.765625 21.140625 C 36.691406 22.804688 36.421875 23.804688 35.613281 25.453125 C 34.382812 27.949219 32.691406 29.761719 30.554688 30.875 C 29.773438 31.277344 28.460938 31.746094 28.09375 31.746094 C 27.996094 31.746094 25.234375 29.0625 21.957031 25.785156 Z M 21.957031 25.785156 "/>
    </g>
   </g>
  </g>
 </g>
 <g>
  <g clip-path="url(#3)">
   <g transform="translate(0,-1)">
    <g>
     <path d="M 13.742188 36.945312 C 13.816406 36.914062 13.9375 36.914062 14.011719 36.945312 C 14.085938 36.976562 14.027344 37 13.878906 37 C 13.730469 37 13.671875 36.976562 13.742188 36.945312 Z M 13.046875 36.589844 C 11.988281 36.109375 10.875 34.535156 11.011719 33.707031 C 11.089844 33.214844 11.351562 32.949219 13.234375 31.445312 C 15.253906 29.832031 16.308594 28.8125 16.476562 28.316406 C 16.703125 27.636719 16.621094 26.324219 16.265625 24.96875 C 15.902344 23.585938 15.757812 22.707031 15.890625 22.707031 C 15.9375 22.707031 18.058594 24.796875 20.601562 27.347656 L 25.230469 31.984375 L 24.546875 31.910156 C 24.171875 31.871094 23.445312 31.714844 22.933594 31.5625 C 21.707031 31.195312 20.097656 31.101562 19.425781 31.359375 C 18.886719 31.566406 18.195312 32.296875 16.148438 34.839844 C 15.417969 35.746094 14.6875 36.558594 14.519531 36.644531 C 14.105469 36.859375 13.59375 36.839844 13.046875 36.589844 Z M 21.957031 25.785156 L 16 19.824219 L 16.128906 19.304688 C 16.566406 17.570312 17.550781 15.925781 18.960938 14.570312 C 22.601562 11.078125 27.214844 10.0625 31.0625 11.90625 C 33.171875 12.917969 35.230469 15.082031 36.125 17.234375 C 36.644531 18.488281 36.832031 19.621094 36.765625 21.140625 C 36.691406 22.804688 36.421875 23.804688 35.613281 25.453125 C 34.382812 27.949219 32.691406 29.761719 30.554688 30.875 C 29.773438 31.277344 28.460938 31.746094 28.09375 31.746094 C 27.996094 31.746094 25.234375 29.0625 21.957031 25.785156 Z M 21.957031 25.785156 " fill="#ff5c5c"/>
    </g>
   </g>
  </g>
 </g>
 <g>
  <g transform="translate(0,-1004.3622)">
   <path d="m 1,1043.3622 0,4 c 0,2.216 1.784,4 4,4 l 38,0 c 2.216,0 4,-1.784 4,-4 l 0,-4 c 0,2.216 -1.784,4 -4,4 l -38,0 c -2.216,0 -4,-1.784 -4,-4 z" opacity="0.1"/>
  </g>
 </g>
</svg>

<svg viewBox="0 0 48 48"><defs><linearGradient id="linearGradient3764" x1="1" x2="47" gradientUnits="userSpaceOnUse" gradientTransform="translate(-48.000001,0.00221467)"><stop stop-color="#2761a9" stop-opacity="1"/><stop offset="1" stop-color="#2b69b9" stop-opacity="1"/></linearGradient><clipPath id="clipPath-306235209"><g transform="translate(0,-1004.3622)"><rect rx="4" y="1005.36" x="1" height="46" width="46" fill="#1890d0"/></g></clipPath><clipPath id="clipPath-335336163"><g transform="translate(0,-1004.3622)"><rect rx="4" y="1005.36" x="1" height="46" width="46" fill="#1890d0"/></g></clipPath></defs><g><path d="m 1 43 l 0 0.25 c 0 2.216 1.784 4 4 4 l 38 0 c 2.216 0 4 -1.784 4 -4 l 0 -0.25 c 0 2.216 -1.784 4 -4 4 l -38 0 c -2.216 0 -4 -1.784 -4 -4 z m 0 0.5 l 0 0.5 c 0 2.216 1.784 4 4 4 l 38 0 c 2.216 0 4 -1.784 4 -4 l 0 -0.5 c 0 2.216 -1.784 4 -4 4 l -38 0 c -2.216 0 -4 -1.784 -4 -4 z" opacity="0.02"/><path d="m 1 43.25 l 0 0.25 c 0 2.216 1.784 4 4 4 l 38 0 c 2.216 0 4 -1.784 4 -4 l 0 -0.25 c 0 2.216 -1.784 4 -4 4 l -38 0 c -2.216 0 -4 -1.784 -4 -4 z" opacity="0.05"/><path d="m 1 43 l 0 0.25 c 0 2.216 1.784 4 4 4 l 38 0 c 2.216 0 4 -1.784 4 -4 l 0 -0.25 c 0 2.216 -1.784 4 -4 4 l -38 0 c -2.216 0 -4 -1.784 -4 -4 z" opacity="0.1"/></g><g><rect width="46" height="46" x="-47" y="1" rx="4" transform="matrix(0,-1,1,0,0,0)" fill="url(#linearGradient3764)" fill-opacity="1"/></g><g><g clip-path="url(#clipPath-306235209)"><g opacity="0.1"><!-- color: #2b69b9 --><g><path d="m 13.742 36.945 c 0.074 -0.031 0.195 -0.031 0.27 0 c 0.074 0.031 0.016 0.055 -0.133 0.055 c -0.148 0 -0.207 -0.023 -0.137 -0.055 m -0.695 -0.355 c -1.059 -0.48 -2.172 -2.055 -2.035 -2.883 c 0.078 -0.492 0.34 -0.758 2.223 -2.262 c 2.02 -1.613 3.074 -2.633 3.242 -3.129 c 0.227 -0.68 0.145 -1.992 -0.211 -3.348 c -0.363 -1.383 -0.508 -2.262 -0.375 -2.262 c 0.047 0 2.168 2.09 4.711 4.641 l 4.629 4.637 l -0.684 -0.074 c -0.375 -0.039 -1.102 -0.195 -1.613 -0.348 c -1.227 -0.367 -2.836 -0.461 -3.508 -0.203 c -0.539 0.207 -1.23 0.938 -3.277 3.48 c -0.73 0.906 -1.461 1.719 -1.629 1.805 c -0.414 0.215 -0.926 0.195 -1.473 -0.055 m 8.91 -10.805 l -5.957 -5.961 l 0.129 -0.52 c 0.438 -1.734 1.422 -3.379 2.832 -4.734 c 3.641 -3.492 8.254 -4.508 12.1 -2.664 c 2.109 1.012 4.168 3.176 5.063 5.328 c 0.52 1.254 0.707 2.387 0.641 3.906 c -0.074 1.664 -0.344 2.664 -1.152 4.313 c -1.23 2.496 -2.922 4.309 -5.059 5.422 c -0.781 0.402 -2.094 0.871 -2.461 0.871 c -0.098 0 -2.859 -2.684 -6.137 -5.961 m 0 0" fill="#000"/></g></g></g></g><g><g clip-path="url(#clipPath-335336163)"><g transform="translate(0,-1)"><!-- color: #2b69b9 --><g><path d="m 13.742 36.945 c 0.074 -0.031 0.195 -0.031 0.27 0 c 0.074 0.031 0.016 0.055 -0.133 0.055 c -0.148 0 -0.207 -0.023 -0.137 -0.055 m -0.695 -0.355 c -1.059 -0.48 -2.172 -2.055 -2.035 -2.883 c 0.078 -0.492 0.34 -0.758 2.223 -2.262 c 2.02 -1.613 3.074 -2.633 3.242 -3.129 c 0.227 -0.68 0.145 -1.992 -0.211 -3.348 c -0.363 -1.383 -0.508 -2.262 -0.375 -2.262 c 0.047 0 2.168 2.09 4.711 4.641 l 4.629 4.637 l -0.684 -0.074 c -0.375 -0.039 -1.102 -0.195 -1.613 -0.348 c -1.227 -0.367 -2.836 -0.461 -3.508 -0.203 c -0.539 0.207 -1.23 0.938 -3.277 3.48 c -0.73 0.906 -1.461 1.719 -1.629 1.805 c -0.414 0.215 -0.926 0.195 -1.473 -0.055 m 8.91 -10.805 l -5.957 -5.961 l 0.129 -0.52 c 0.438 -1.734 1.422 -3.379 2.832 -4.734 c 3.641 -3.492 8.254 -4.508 12.1 -2.664 c 2.109 1.012 4.168 3.176 5.063 5.328 c 0.52 1.254 0.707 2.387 0.641 3.906 c -0.074 1.664 -0.344 2.664 -1.152 4.313 c -1.23 2.496 -2.922 4.309 -5.059 5.422 c -0.781 0.402 -2.094 0.871 -2.461 0.871 c -0.098 0 -2.859 -2.684 -6.137 -5.961 m 0 0" fill="#ff5c5c"/></g></g></g></g><g><g transform="translate(0,-1004.3622)"><path d="m 1 1043.36 0 4 c 0 2.216 1.784 4 4 4 l 38 0 c 2.216 0 4 -1.784 4 -4 l 0 -4 c 0 2.216 -1.784 4 -4 4 l -38 0 c -2.216 0 -4 -1.784 -4 -4 z" opacity="0.1"/></g></g></svg>
